tools/download-figma-icons/icons/outlined-medium/semi-detached-house-alternative.svg

<svg width="24" height="24" viewBox="0 0 24 24" fill="none" xmlns="http://www.w3.org/2000/svg">
<path fill-rule="evenodd" clip-rule="evenodd" d="M12.5086 0.202563L23.7612 10.7058C24.0613 10.9834 24.0838 11.4636 23.7988 11.7637C23.6487 11.9212 23.4537 12.0038 23.2511 12.0038C23.0711 12.0038 22.8835 11.9362 22.741 11.8012L22.501 11.5761V23.2498C22.501 23.6624 22.1634 24 21.7508 24H2.24628C1.83368 24 1.49611 23.6624 1.49611 23.2498V11.5761L1.25605 11.8012C0.95598 12.0788 0.483371 12.0638 0.198306 11.7637C-0.0792584 11.4636 -0.064255 10.9909 0.235814 10.7058L11.4809 0.202563C11.7735 -0.0675211 12.2236 -0.0675211 12.5086 0.202563ZM11.2484 2.47577L2.99645 10.1807V22.507H4.4968V17.2479C4.4968 16.8353 4.83438 16.4977 5.24697 16.4977H8.99784C9.41043 16.4977 9.74801 16.8353 9.74801 17.2479V22.507H11.2484V2.47577ZM5.99714 17.9981V22.4995H8.24766V17.9981H5.99714ZM15.7494 17.9981V22.4995H17.9999V17.9981H15.7494ZM19.5003 22.4995H21.0006V10.1807L12.7487 2.47577V22.4995H14.249V17.2404C14.249 16.8278 14.5866 16.4902 14.9992 16.4902H18.7501C19.1627 16.4902 19.5003 16.8278 19.5003 17.2404V22.4995ZM5.247 15.0043H8.99786C9.41046 15.0043 9.74804 14.6667 9.74804 14.2541V11.2532C9.74804 10.8405 9.41046 10.5029 8.99786 10.5029H5.247C4.8344 10.5029 4.49683 10.8405 4.49683 11.2532V14.2541C4.49683 14.6667 4.8344 15.0043 5.247 15.0043ZM5.99717 12.0034H8.24769V13.5039H5.99717V12.0034ZM14.9992 15.0043H18.7501C19.1627 15.0043 19.5002 14.6667 19.5002 14.2541V11.2532C19.5002 10.8405 19.1627 10.5029 18.7501 10.5029H14.9992C14.5866 10.5029 14.249 10.8405 14.249 11.2532V14.2541C14.249 14.6667 14.5866 15.0043 14.9992 15.0043ZM15.7494 12.0034H17.9999V13.5039H15.7494V12.0034Z" fill="black"/>
</svg>

<svg xmlns="http://www.w3.org/2000/svg" width="24" height="24" fill="none" viewBox="0 0 24 24"><path fill="currentColor" fill-rule="evenodd" d="M12.509.203 23.76 10.706c.3.277.323.758.038 1.058a.747.747 0 0 1-1.058.037l-.24-.225V23.25c0 .412-.338.75-.75.75H2.246a.75.75 0 0 1-.75-.75V11.576l-.24.225a.755.755 0 0 1-1.058-.037.755.755 0 0 1 .038-1.058L11.48.203a.753.753 0 0 1 1.028 0m-1.26 2.273L2.995 10.18v12.326h1.5v-5.26c0-.412.338-.75.751-.75h3.75c.413 0 .751.338.751.75v5.26h1.5zM5.996 17.998V22.5h2.25v-4.502zm9.752 0V22.5H18v-4.502zM19.5 22.5H21V10.18l-8.25-7.703V22.5h1.5v-5.26c0-.412.338-.75.75-.75h3.751c.413 0 .75.338.75.75zM5.247 15.004h3.75a.75.75 0 0 0 .751-.75v-3a.75.75 0 0 0-.75-.751H5.247a.75.75 0 0 0-.75.75v3.001c0 .413.337.75.75.75m.75-3h2.25v1.5h-2.25zm9.002 3h3.751c.413 0 .75-.337.75-.75v-3a.75.75 0 0 0-.75-.751H15a.75.75 0 0 0-.751.75v3.001c0 .413.338.75.75.75m.75-3H18v1.5h-2.25z" clip-rule="evenodd"/></svg>
